X:1
T:Game Cock [1], The
L:1/8
M:12/8
I:linebreak $
K:D
V:1 treble 
V:1
 A | F2 A d2 A{Bc} BAB d2 A | Bcd A2 F E3 E2 A | F2 A d2 A{Bc} BAB d2 A |$ Bcd A2 F D3 D2 :: g | %6
{fg} f3 f2 e d2 e f2 g | a2 f d2 f e3 e2 f | f3{a} f2 e d2 e fed |$ Bcd A2 F D3 D2 :| %10
